X:1
T:Title
%%score { ( 1 3 ) | 2 }
L:1/8
Q:1/4=100
M:4/4
K:Eb
V:1 treble nm="Grand Piano"
V:3 treble 
V:2 bass 
V:1
 BcBG F2 E2 | G2 G6 | BcBG F2 E2 | A6 z2 | [DAc][DAd][DAc][B,FA] [B,DG]2 [A,DF]2 | [F,B,D]2 [DB]6 | %6
w: Chas.~H.~Gabriel * * * * *||||||
 [DAB][DAc][DAB][DAc] [DAB]2 [DAc]2 | [EGB]6 z2 | [Ge][Ge][Ae][Be] [Ae]2 [Ac]2 | [Ac]2 [GB]6 | %10
w: ||||
 BBBB c2 c2 | d4- [Ad]4 | [Ge][Ge][Ae][Be] [Ae]2 [EAc]2 | [EGB]2 [B,EG]6 | %14
w: ||||
 [G,E][A,EF][B,EG][B,EB] [B,EG]2 [A,DF]2 | [G,B,E]6 z2 |] %16
w: ||
V:2
 [E,G,E][E,A,E][E,G,E][E,B,E] [E,A,B,]2 [E,G,B,]2 | [E,B,E]2 [E,B,E]6 | %2
 [E,G,E][E,A,E][E,G,E][E,B,E] [E,A,B,]2 [E,G,B,]2 | [F,B,D]6 z2 | B,,B,,B,,B,, B,,2 B,,2 | %5
 B,,2 [B,,A,]6 | B,,B,,B,,B,, B,,2 B,,2 | E,6 z2 | [E,B,][E,B,][F,B,][G,B,] [A,C]2 [A,E]2 | %9
 [E,E]2 [E,E]6 | [F,B,F][F,B,F][F,B,F][F,B,F] [F,=A,F]2 [F,A,F]2 | [B,,B,]8 | %12
 [E,B,][E,B,][F,B,][G,B,] [A,C]2 A,2 | E,2 E,6 | E,E,E,G,, B,,2 B,,2 | E,6 z2 |] %16
V:3
 x8 | x8 | x8 | x8 | x8 | x8 | x8 | x8 | x8 | x8 | x8 | F4 z4 | x8 | x8 | x8 | x8 |] %16

